exported-svg/trash-2.svg

<svg height="24" viewBox="0 0 24 24" width="24" xmlns="http://www.w3.org/2000/svg"><path d="m8 6v-1.5c0-1.38071187 1.11928813-2.5 2.5-2.5h4c1.3807119 0 2.5 1.11928813 2.5 2.5v1.5h4.5c.2761424 0 .5.22385763.5.5s-.2238576.5-.5.5h-1.5v13.5c0 1.3807119-1.1192881 2.5-2.5 2.5h-10c-1.38071187 0-2.5-1.1192881-2.5-2.5v-13.5h-1.5c-.27614237 0-.5-.22385763-.5-.5s.22385763-.5.5-.5zm1 0h7v-1.5c0-.82842712-.6715729-1.5-1.5-1.5h-4c-.82842712 0-1.5.67157288-1.5 1.5zm10 1h-13v13.5c0 .8284271.67157288 1.5 1.5 1.5h10c.8284271 0 1.5-.6715729 1.5-1.5zm-9 4.5c0-.2761424.2238576-.5.5-.5s.5.2238576.5.5v6c0 .2761424-.2238576.5-.5.5s-.5-.2238576-.5-.5zm4 0c0-.2761424.2238576-.5.5-.5s.5.2238576.5.5v6c0 .2761424-.2238576.5-.5.5s-.5-.2238576-.5-.5z"/></svg>

<?xml version="1.0" encoding="UTF-8"?>
<svg width="24px" height="24px" viewBox="0 0 24 24" version="1.1" xmlns="http://www.w3.org/2000/svg" xmlns:xlink="http://www.w3.org/1999/xlink">
    <!-- Generator: Sketch 55.2 (78181) - https://sketchapp.com -->
    <title>trash-2</title>
    <desc>Created with Sketch.</desc>
    <g id="trash-2" stroke="none" stroke-width="1" fill="none" fill-rule="evenodd">
        <path d="M8,6 L8,4.5 C8,3.11928813 9.11928813,2 10.5,2 L14.5,2 C15.8807119,2 17,3.11928813 17,4.5 L17,6 L21.5,6 C21.7761424,6 22,6.22385763 22,6.5 C22,6.77614237 21.7761424,7 21.5,7 L20,7 L20,20.5 C20,21.8807119 18.8807119,23 17.5,23 L7.5,23 C6.11928813,23 5,21.8807119 5,20.5 L5,7 L3.5,7 C3.22385763,7 3,6.77614237 3,6.5 C3,6.22385763 3.22385763,6 3.5,6 L8,6 Z M9,6 L16,6 L16,4.5 C16,3.67157288 15.3284271,3 14.5,3 L10.5,3 C9.67157288,3 9,3.67157288 9,4.5 L9,6 Z M19,7 L6,7 L6,20.5 C6,21.3284271 6.67157288,22 7.5,22 L17.5,22 C18.3284271,22 19,21.3284271 19,20.5 L19,7 Z" id="Combined-Shape" fill="#000000" fill-rule="nonzero"></path>
        <path d="M10,11.5 L10,17.5 C10,17.7761424 10.2238576,18 10.5,18 C10.7761424,18 11,17.7761424 11,17.5 L11,11.5 C11,11.2238576 10.7761424,11 10.5,11 C10.2238576,11 10,11.2238576 10,11.5 Z" id="Shape" fill="#000000" fill-rule="nonzero"></path>
        <path d="M14,11.5 L14,17.5 C14,17.7761424 14.2238576,18 14.5,18 C14.7761424,18 15,17.7761424 15,17.5 L15,11.5 C15,11.2238576 14.7761424,11 14.5,11 C14.2238576,11 14,11.2238576 14,11.5 Z" id="Shape" fill="#000000" fill-rule="nonzero"></path>
    </g>
</svg>
